!!!OTL: HUSAREN SIND GAR WACKRE TRUPPEN
!!!ARE: Europa, Mitteleuropa, Deutschland
!!!SCT: B0569
!!!YEM: Copyright 1995, estate of Helmut Schaffrath.
**kern
*ICvox
*Ivox
*M4/4
*k[f#c#g#]
*A:
{4e
=1
8.a
16g#
8.a
16b
4cc#
4a
=2
4.b
8cc#
4b}
{4e
=3
8.dd
16cc#
8.b
16a
8g#
8a
8b
8g#
=4
2cc#
4r}
{4e
=5
8.a
16g#
8.a
16b
4cc#
4a
=6
4.b
8cc#
4b}
{4e
=7
8.dd
16cc#
8.b
16a
8g#
8a
8b
8g#
=8
2a
4r}
{4e
=9
2g#
2e
=10
2b
2e
=11
2ccn
2a
=12
2b
4e}
{4e
=13
8.a
16g#
8.a
16b
4cc#
4a
=14
2ee
4cc#
4cc#
=15
2b
8b
8dd
8cc#
8b
=16
2a
4r}
==
!!!AGN: Staende -, Soldaten - Lied
!!!ONB: ESAC (Essen Associative Code) Database: BOEHME
!!!AMT: simple quadruple
!!!AIN: vox
!!!EED: Helmut Schaffrath
!!!EEV: 1.0
*-
